X:1
T:Title
L:1/8
Q:1/4=100
M:6/8
K:F
V:1 treble nm="Church Organ, Staff"
V:1
 A c2 A c2 | B A2 G F2 | G A2 A G2 | F G2- G G2 | A c2 A c2 | d =B2 G c2 | A A2 G A2 | %7
w: By~F.~W.~Dawkins * * *|||||||
 =B c2- c c2 | c c2 c e2 | d c2- c/ z/ B2 | B A2 A d2 | d G2- G G2 | A c2 B A2 | G F2 F F2 | %14
w: |||||||
 G A2 B G2 | F F2- F F2 |] %16
w: ||

